X:196
T:Richard Malvine (Woodrich)
%%VWML:SBG-1-2-67-0
F:http://www.vwml.org/record/SBG/1/2/67
Z:Original Sibelius transcriptions by M. & S. Graebe
M:3/8
I:linebreak $
K:G
V:1 treble nm="P1"
V:1
 D | G G A/G/ | F D D | G A/G/ F | G3 d | c A c | B G B | A E F/E/ | D2 B | c d e |$ c A d | %11
 D F A | GF E | D/G/Bd | c A/G/ F | G2 B | d B d | c A/G/ F | G2 z | %19
T:Richard Malvine (Parsons)
F:http://www.vwml.org/record/SBG/1/2/67
Z:Original Sibelius transcriptions by M. & S. Graebe
M:6/8
I:linebreak $
K:G
V:1 treble nm="P1"
V:1
 D | GGF GGF | GBc dBG | AAB cBA | GFG A2 B/c/ | dAA/B/ cBB/c/ |$ dBG GFD | d2 B/c/ dcA | %8
 G3 G A2 B/c/ | d2 B/c/ dcA | G2 x x3 | %11
